X:39
T:Bobby Shaftoe
Z:Jack Campin, http://www.campin.me.uk/
S:Northumbrian Minstrelsy
M:2/4
L:1/8
P:ABBA
K:Bb
P:A
B B B e|d f (dB)|                 \
                 F F F B|A c (AF)|
B A B e|d f (dB)|                 \
                 c e c A|B2   B2||
P:B
d f d B|d f  d2 |                 \
                 c e c A|c e  c2 |
d f d B|d f  d2 |                 \
                 c e c A|B2   B2|]

